lib/assets/switch/achived.svg

<svg width="48" height="48" viewBox="0 0 48 48" fill="none" xmlns="http://www.w3.org/2000/svg">
<path d="M8 20C8 16.2288 8 14.3431 9.17157 13.1716C10.3431 12 12.2288 12 16 12H32C35.7712 12 37.6569 12 38.8284 13.1716C40 14.3431 40 16.2288 40 20V27C40 30.7712 40 32.6569 38.8284 33.8284C37.6569 35 35.7712 35 32 35H16C12.2288 35 10.3431 35 9.17157 33.8284C8 32.6569 8 30.7712 8 27V20Z" fill="#2067F5"/>
<path d="M9.17157 33.8284L7.54523 35.4548L9.17157 33.8284ZM38.8284 33.8284L40.4548 35.4548L40.4548 35.4548L38.8284 33.8284ZM38.8284 13.1716L37.2021 14.7979L38.8284 13.1716ZM16 14.3H32V9.7H16V14.3ZM37.7 20V27H42.3V20H37.7ZM32 32.7H16V37.3H32V32.7ZM10.3 27V20H5.7V27H10.3ZM16 32.7C14.0494 32.7 12.8178 32.6951 11.9174 32.5741C11.0832 32.4619 10.8851 32.2893 10.7979 32.2021L7.54523 35.4548C8.62958 36.5391 9.96014 36.9523 11.3044 37.133C12.5826 37.3049 14.1794 37.3 16 37.3V32.7ZM5.7 27C5.7 28.8206 5.69512 30.4174 5.86696 31.6956C6.04769 33.0399 6.46087 34.3704 7.54523 35.4548L10.7979 32.2021C10.7107 32.1149 10.5381 31.9168 10.4259 31.0826C10.3049 30.1822 10.3 28.9506 10.3 27H5.7ZM37.7 27C37.7 28.9506 37.6951 30.1822 37.5741 31.0826C37.4619 31.9168 37.2893 32.1149 37.2021 32.2021L40.4548 35.4548C41.5391 34.3704 41.9523 33.0399 42.133 31.6956C42.3049 30.4174 42.3 28.8206 42.3 27H37.7ZM32 37.3C33.8206 37.3 35.4174 37.3049 36.6956 37.133C38.0399 36.9523 39.3704 36.5391 40.4548 35.4548L37.2021 32.2021C37.1149 32.2893 36.9168 32.4619 36.0826 32.5741C35.1822 32.6951 33.9506 32.7 32 32.7V37.3ZM32 14.3C33.9506 14.3 35.1822 14.3049 36.0826 14.4259C36.9168 14.5381 37.1149 14.7107 37.2021 14.7979L40.4548 11.5452C39.3704 10.4609 38.0399 10.0477 36.6956 9.86696C35.4174 9.69512 33.8206 9.7 32 9.7V14.3ZM42.3 20C42.3 18.1794 42.3049 16.5826 42.133 15.3044C41.9523 13.9601 41.5391 12.6296 40.4548 11.5452L37.2021 14.7979C37.2893 14.8851 37.4619 15.0832 37.5741 15.9174C37.6951 16.8178 37.7 18.0494 37.7 20H42.3ZM16 9.7C14.1794 9.7 12.5826 9.69512 11.3044 9.86696C9.96014 10.0477 8.62958 10.4609 7.54523 11.5452L10.7979 14.7979C10.8851 14.7107 11.0832 14.5381 11.9174 14.4259C12.8178 14.3049 14.0494 14.3 16 14.3V9.7ZM10.3 20C10.3 18.0494 10.3049 16.8178 10.4259 15.9174C10.5381 15.0832 10.7107 14.8851 10.7979 14.7979L7.54523 11.5452C6.46087 12.6296 6.04769 13.9601 5.86696 15.3044C5.69512 16.5826 5.7 18.1794 5.7 20H10.3Z" fill="#EBEBEB"/>
<rect x="24.1" y="17" width="11" height="13" rx="2" fill="#EBEBEB"/>
</svg>

<svg width="48" height="48" viewBox="0 0 48 48" fill="none" xmlns="http://www.w3.org/2000/svg"><path d="M8 20c0-3.771 0-5.657 1.172-6.828C10.343 12 12.229 12 16 12h16c3.771 0 5.657 0 6.828 1.172C40 14.343 40 16.229 40 20v7c0 3.771 0 5.657-1.172 6.828C37.657 35 35.771 35 32 35H16c-3.771 0-5.657 0-6.828-1.172C8 32.657 8 30.771 8 27v-7Z" fill="#2067F5"/><path d="m9.172 33.828-1.627 1.627 1.627-1.627Zm29.656 0 1.627 1.627-1.627-1.627Zm0-20.656-1.626 1.626 1.626-1.626ZM16 14.3h16V9.7H16v4.6ZM37.7 20v7h4.6v-7h-4.6ZM32 32.7H16v4.6h16v-4.6ZM10.3 27v-7H5.7v7h4.6Zm5.7 5.7c-1.95 0-3.182-.005-4.083-.126-.834-.112-1.032-.285-1.12-.372l-3.252 3.253c1.085 1.084 2.415 1.497 3.76 1.678 1.278.172 2.874.167 4.695.167v-4.6ZM5.7 27c0 1.82-.005 3.417.167 4.696.18 1.344.594 2.674 1.678 3.759l3.253-3.253c-.087-.087-.26-.285-.372-1.12-.121-.9-.126-2.131-.126-4.082H5.7Zm32 0c0 1.95-.005 3.182-.126 4.083-.112.834-.285 1.032-.372 1.12l3.253 3.252c1.084-1.085 1.497-2.415 1.678-3.76.172-1.278.167-2.874.167-4.695h-4.6ZM32 37.3c1.82 0 3.417.005 4.696-.167 1.344-.18 2.674-.594 3.759-1.678l-3.253-3.253c-.087.087-.285.26-1.12.372-.9.121-2.131.126-4.082.126v4.6Zm0-23c1.95 0 3.182.005 4.083.126.834.112 1.032.285 1.12.372l3.252-3.253c-1.085-1.084-2.415-1.497-3.76-1.678C35.418 9.695 33.822 9.7 32 9.7v4.6ZM42.3 20c0-1.82.005-3.417-.167-4.696-.18-1.344-.594-2.674-1.678-3.759l-3.253 3.253c.087.087.26.285.372 1.12.121.9.126 2.131.126 4.082h4.6ZM16 9.7c-1.82 0-3.417-.005-4.696.167-1.344.18-2.674.594-3.759 1.678l3.253 3.253c.087-.087.285-.26 1.12-.372.9-.121 2.131-.126 4.082-.126V9.7ZM10.3 20c0-1.95.005-3.182.126-4.083.112-.834.285-1.032.372-1.12l-3.253-3.252c-1.084 1.085-1.497 2.415-1.678 3.76C5.695 16.582 5.7 18.178 5.7 20h4.6Z" fill="#EBEBEB"/><rect x="24.1" y="17" width="11" height="13" rx="2" fill="#EBEBEB"/></svg>
